X:1
T:Abode of Peace
T:Abode of Peace
T:Prince Frans Gustav Oskar (1827–1852)
T:Agata Rosenius (1814–1874)
T:Public Domain Courtesy of the Cyber Hymnal™
T:Public Domain Courtesy of the Cyber Hymnal™
C:Prince Frans Gustav Oskar (1827–1852)
Z:Public Domain
Z:Courtesy of the Cyber Hymnal™
%%score ( 1 2 ) ( 3 4 )
L:1/8
Q:1/4=115
M:6/8
K:E
V:1 treble 
V:2 treble 
V:3 bass 
V:4 bass 
V:1
|: B, | ([B,-G]3 [B,F]2) [B,E] | B,3- B,2 B, | [B,G]2 [B,G] [CA]2 [B,G] | [B,G]3 [A,F]2 C | %5
w: 1.~A-|bode * of|peace, * my|Fa- ther’s home for-|ev- er! My|
w: ~~~~I|home- * ward|look * to|Thee, my Lord and|Sav- ior, To|
w: 2.~The|Lord * be|praised * that|time so swift- ly|fli- eth; God’s|
w: ~~~~Who|on * God’s|Word * and|prom- is- es re-|li- eth Shall|
w: 3.~Then,|keep * my|heart * for-|ev- er, O my|Sav- ior, And|
w: ~~~~In|joy, * in|pain, * in|sor- row, now and|ev- er, Thou|
 [CA]3 [C^E]3 | [CF]2 [CE] (ED)[B,E] | ([EG]3 [DF]C)[B,D] | [B,E]3 z2 :| B, | %10
w: wea- ry|soul in faith * doth|yearn * * for|thee.||
w: Thine a-|bode of peace, * e-|ter- * * nal-|ly.|There|
w: prom- ise|is ful- filled * for-|ev- * * er-|more.||
w: find at|last the choic- * est|wine * * in|store.|For-|
w: let me|nev- er, Lord, * from|Thee * * de-|part.||
w: on- ly|giv- est sol- * ace|to * * my|heart.|For|
 ([DF]3- [DF][B,E])[B,D] | (DC)B, ([B,E][EG])[Ec] | [EB]3- [EB]2 B, | ([DF]3- [DF][B,E])[B,D] | %14
w: ||||
w: is * * on|earth * no peace- * ful|rest; * Our|faith * * is|
w: ||||
w: got- * * ten|then * is all * dis-|tress, * E-|ter- * * nal|
w: ||||
w: when, * * O|Lord, * I am * with|Thee, * All|o- * * ther|
 (DC)B, (EG)[Ge] | [EB]3- [EB]2 B, | ([EG]3- [EG][DF])E | (ED)E [Ee]3 | ([ce][Bd][Ac]) (BA)[DF] | %19
w: |||||
w: weak, * our souls * op-|pressed, * Our|vi- * * sion|dim * and fail-|ing, * * Our * vi-|
w: |||||
w: peace * and hap- * pi-|ness * Shall|then * * be|ours * for- ev-|er, * * Shall * then|
w: |||||
w: com- * forts well * may|flee; * With|Thee * * I’m|blest * for- ev-|er, * * With * Thee|
 ([EG]3- Gc)[EB] | ([EG][CA])[B,D] [B,F]3 | [B,E]3- [B,E] z |] %22
w: |||
w: sion * * *|dim * and fail-|ing. *|
w: |||
w: be * * *|ours * for- ev-|er. *|
w: |||
w: I’m * * *|blest * for- ev-|er. *|
V:2
|: B, | x6 | B,3- B,2 B, | x6 | x5 C | x6 | x3 B,2 x | x6 | x5 :| B, | x6 | B,2 B, x3 | x5 B, | %13
 x6 | B,2 B, B,2 x | x5 B, | x5 E | B,2 E x3 | x3 F2 x | x3 E2 x | x6 | x5 |] %22
V:3
|: [E,G,] | E,3 [E,A,]2 [E,G,] | [E,G,]3- [E,G,]2 [E,G,] | E,2 =E, [C,^E,]2 [C,E,] | %4
 F,3 F,2 [F,A,] | [F,,A,]3 [G,,B,]3 | [A,,A,]2 [^A,,=G,] (^G,F,)[B,,G,] | %7
 [B,,-B,]3 [B,,A,]2 [B,,A,] | [E,G,]3 z2 :| [E,G,] | ([B,,A,]3- A,G,)[B,,F,] | %11
 [F,A,]2 [F,A,] (G,B,)[A,,A,] | [E,G,]3- [E,G,]2 [E,G,] | ([B,,A,]3- A,G,)[B,,F,] | %14
 [F,A,]2 [F,A,] [E,G,]2 [E,B,] | [E,G,]3- [E,G,]2 [E,G,] | ([E,B,]3- [E,B,][F,A,])[G,B,] | %17
 [F,A,]2 [G,B,] [A,C]3 | A,3 [D,B,]2 B, | ([E,B,]3- B,A,)[E,G,] | ([E,B,][F,A,])[B,,A,] A,3 | %21
 [E,G,]3- [E,G,] z |] %22
V:4
|: x | E,3- x3 | x6 | ^E,2 ^E, x3 | F,3 F,2 x | x6 | x3 B,,2 x | x6 | x5 :| x | x3 B,,2 x | %11
 x3 E,2 x | x6 | x3 B,,2 x | x6 | x6 | x6 | x6 | A,3 B, x2 | x3 E,2 x | x3 (B,,C,D,) | x5 |] %22

